picto/emergency-window-with-escape-ladder-left-framed.svg

<svg class="color-immutable" width="30" height="30" viewBox="0 0 30 30" fill="none" xmlns="http://www.w3.org/2000/svg"><path d="M30 0H0V30H30V0Z" fill="#237F52"/><path d="M25.5 3C26.325 3 27 3.675 27 4.5V25.5C27 26.325 26.325 27 25.5 27H4.5C3.675 27 3 26.325 3 25.5V4.5C3 3.675 3.675 3 4.5 3H25.5ZM25.5 2.625H4.5C3.46613 2.625 2.625 3.46613 2.625 4.5V25.5C2.625 26.5339 3.46613 27.375 4.5 27.375H25.5C26.5339 27.375 27.375 26.5339 27.375 25.5V4.5C27.375 3.46613 26.5339 2.625 25.5 2.625Z" fill="white"/><path d="M13.0875 9.2625C13.0875 9.82155 12.6339 10.2751 12.0756 10.2751C11.516 10.2751 11.0625 9.82155 11.0625 9.2625C11.0625 8.70285 11.5161 8.25 12.0756 8.25C12.6339 8.25 13.0875 8.70285 13.0875 9.2625Z" fill="white"/><path d="M17.6778 15L16.5404 13.8626L14.5845 15.8173V18.6743C14.5845 18.9611 14.3516 19.1943 14.0648 19.1943C13.778 19.1943 13.5458 18.9611 13.5458 18.6743V15.5295C13.5458 15.3908 13.5995 15.2597 13.6975 15.161L15.2539 13.6047L13.5458 11.8957V13.3502C13.5458 13.5658 13.3711 13.7401 13.156 13.7401H11.3122C11.0964 13.7401 10.9221 13.5658 10.9221 13.3502C10.9221 13.1344 11.0964 12.9607 11.3122 12.9607H12.7921V11.1424C12.7921 10.426 13.3735 9.84375 14.0916 9.84375H15.9067C16.0443 9.84375 16.1771 9.8991 16.274 9.99645L17.8064 11.5284C17.8748 11.5961 17.9131 11.6881 17.9131 11.7854C17.9131 11.9854 17.7501 12.1486 17.5494 12.1486C17.4526 12.1486 17.3606 12.1107 17.2917 12.0425L15.8468 10.5964H14.8178L19.2209 15H17.6778Z" fill="white"/><path d="M16.125 14.5856L15.2812 13.7419V13.4673L16.125 12.623V14.5856Z" fill="white"/><path d="M13.875 6V9.57757C13.9458 9.56782 14.0179 9.56243 14.0914 9.56243H14.7188V6.84375H23.1562V15.2812H15.5186L14.8656 15.9339V16.125H24V6H13.875Z" fill="white"/><path d="M6 6.375V23.625C6 23.8439 6.19013 24.0206 6.41348 23.998C6.60803 23.9784 6.75 23.8029 6.75 23.6073V22.6875H11.25C11.2516 22.6875 11.253 22.6888 11.253 22.6905V23.625C11.253 23.8431 11.4417 24.0193 11.6639 23.9983C11.86 23.9797 12.003 23.8018 12.003 23.6047V14.0212H11.312C11.2921 14.0212 11.2725 14.02 11.253 14.0182V16.3095C11.253 16.3111 11.2516 16.3125 11.25 16.3125H6.75V13.6875H10.7326C10.6745 13.5882 10.6406 13.4731 10.6406 13.3501C10.6406 13.3374 10.6418 13.325 10.6425 13.3125H6.75V10.6875H11.25C11.2516 10.6875 11.253 10.6888 11.253 10.6905V12.6824C11.2725 12.6807 11.2921 12.6794 11.312 12.6794H12.003V10.5526C11.7193 10.5368 11.4592 10.4308 11.253 10.2607V10.3095C11.253 10.3111 11.2516 10.3125 11.25 10.3125H6.75V7.6875H11.25C11.2516 7.6875 11.253 7.68885 11.253 7.6905V8.2644C11.4592 8.0943 11.7193 7.98832 12.003 7.9725V6.375C12.003 6.1569 11.8143 5.98072 11.5921 6.00172C11.3959 6.02025 11.253 6.19822 11.253 6.39525V7.3095C11.253 7.31115 11.2516 7.3125 11.25 7.3125H6.75V6.3927C6.75 6.19717 6.60803 6.0216 6.41348 6.00195C6.19013 5.97937 6 6.15607 6 6.375ZM6.75 19.6875H11.25C11.2516 19.6875 11.253 19.6888 11.253 19.6905V22.3096C11.253 22.3112 11.2516 22.3126 11.25 22.3126H6.75V19.6875ZM6.75 16.6875H11.25C11.2516 16.6875 11.253 16.6888 11.253 16.6905V19.3096C11.253 19.3112 11.2516 19.3126 11.25 19.3126H6.75V16.6875Z" fill="white"/></svg>

<svg class="color-immutable" width="30" height="30" viewBox="0 0 30 30" fill="none" xmlns="http://www.w3.org/2000/svg"><g clip-path="url(#a)"><path d="M30 0H0v30h30V0Z" fill="#237F52"/><path d="M25.5 3c.825 0 1.5.675 1.5 1.5v21c0 .825-.675 1.5-1.5 1.5h-21c-.825 0-1.5-.675-1.5-1.5v-21C3 3.675 3.675 3 4.5 3h21Zm0-.375h-21A1.877 1.877 0 0 0 2.625 4.5v21c0 1.034.841 1.875 1.875 1.875h21a1.877 1.877 0 0 0 1.875-1.875v-21A1.877 1.877 0 0 0 25.5 2.625Z" fill="#fff"/><path d="M13.088 9.262a1.013 1.013 0 1 1-2.026 0 1.013 1.013 0 0 1 2.026 0ZM17.678 15l-1.138-1.137-1.955 1.954v2.857a.52.52 0 0 1-1.04 0V15.53a.52.52 0 0 1 .152-.369l1.557-1.556-1.708-1.71v1.455a.39.39 0 0 1-.39.39h-1.844a.39.39 0 1 1 0-.78h1.48v-1.818a1.3 1.3 0 0 1 1.3-1.298h1.815a.52.52 0 0 1 .367.152l1.532 1.532a.364.364 0 0 1-.515.514l-1.444-1.446h-1.03L19.222 15h-1.543Z" fill="#fff"/><path d="m16.125 14.586-.844-.844v-.275l.844-.844v1.963Z" fill="#fff"/><path d="M13.875 6v3.578c.07-.01.143-.016.216-.016h.628V6.844h8.437v8.437H15.52l-.653.653v.191H24V6H13.875ZM6 6.375v17.25c0 .219.19.396.413.373a.387.387 0 0 0 .337-.39v-.92h4.5c.002 0 .003 0 .003.003v.934c0 .218.189.394.41.373.197-.018.34-.196.34-.393V14.02h-.691a.64.64 0 0 1-.059-.003v2.291a.003.003 0 0 1-.003.003h-4.5v-2.625h3.983a.666.666 0 0 1-.092-.337c0-.013 0-.025.002-.037H6.75v-2.626h4.5c.002 0 .003.002.003.004v1.991a.677.677 0 0 1 .059-.003h.691v-2.126a1.288 1.288 0 0 1-.75-.292v.049a.003.003 0 0 1-.003.002h-4.5V7.688h4.5c.002 0 .003 0 .003.003v.573c.206-.17.466-.276.75-.291V6.375a.376.376 0 0 0-.41-.373c-.197.018-.34.196-.34.393v.915a.003.003 0 0 1-.003.003h-4.5v-.92a.387.387 0 0 0-.337-.391.376.376 0 0 0-.413.373Zm.75 13.313h4.5c.002 0 .003 0 .003.003v2.619a.003.003 0 0 1-.003.003h-4.5v-2.625Zm0-3h4.5c.002 0 .003 0 .003.003v2.619a.003.003 0 0 1-.003.003h-4.5v-2.625Z" fill="#fff"/></g><defs><clipPath id="a"><path fill="#fff" d="M0 0h30v30H0z"/></clipPath></defs></svg>
